!!!!SEGMENT: Wil2026-Salva_nos_ab_excidio.krn
!!!id: Wil2026
!!!AGN: Motet
!!!SCT: Zenck (1950)
!!!voices: 5
!!!COM: Adrian Willaert
!!!OTL: Salva nos ab excidio
**kern	**kern	**kern	**kern	**kern
*part5	*part4	*part3	*part2	*part1
*staff5	*staff4	*staff3	*staff2	*staff1
*I"Bassus	*I"Tenor II	*I"Tenor I	*I"Altus	*I"Superius
*I'B	*I'T. II	*I'T. I	*I'A	*I'S
*clefF4	*clefGv2	*clefGv2	*clefGv2	*clefG2
*k[b-]	*k[b-]	*k[b-]	*k[b-]	*k[b-]
*F:	*F:	*F:	*F:	*F:
*M2/1	*M2/1	*M2/1	*M2/1	*M2/1
*met(C|)	*met(C|)	*met(C|)	*met(C|)	*met(C|)
!!section: Prima pars: Salva nos ab excidio
!!!OMD: Prima pars: Salva nos ab excidio
=1	=1	=1	=1	=1
!	!LO:TX:a:t=Canon&colon; tenor II/altus at the fifth	!	!	!
0F	0r	0r	0r	0r
=2	=2	=2	=2	=2
1G	0r	1r	0r	0r
1A	.	[1F	.	.
=3	=3	=3	=3	=3
2r	0r	1F]	0r	0r
2.F	.	.	.	.
.	.	1G	.	.
4E	.	.	.	.
4E	.	.	.	.
8DL	.	.	.	.
8EJ	.	.	.	.
=4	=4	=4	=4	=4
0F	1r	1A	0r	0c
.	[1F	2r	.	.
.	.	[2c	.	.
=5	=5	=5	=5	=5
1D	1F]	4c]	0r	1d
.	.	4B-y	.	.
.	.	4B-y	.	.
.	.	8AL	.	.
.	.	8B-yJ	.	.
1C	1G	[1c	.	1e
=6	=6	=6	=6	=6
1F	1A	1c]	0r	2r
.	.	.	.	1f
2D	[1A	2.F	.	.
[2F	.	.	.	4e
.	.	4G	.	4d
=7	=7	=7	=7	=7
2F]	2A]	2A	1r	2c
4E	4G	2B-y	.	1f
4D	4F	.	.	.
1C	1G	1c	[1c	.
.	.	.	.	2e
=8	=8	=8	=8	=8
2.F	1A	1r	1c]	2f
.	.	.	.	2.c
4E	.	.	.	.
1D	1r	1F	1d	.
.	.	.	.	4B-y
.	.	.	.	4B-y
.	.	.	.	8AL
.	.	.	.	8B-yJ
=9	=9	=9	=9	=9
1C	0r	1G	1e	2c
.	.	.	.	2.cc
2.AA	.	1A	[1e	.
.	.	.	.	4b-y
.	.	.	.	2a
4BB-y	.	.	.	.
=10	=10	=10	=10	=10
2C	1r	2r	2e]	2g
2AA	.	2.c	4d	2a
.	.	.	4c	.
1D	1F	.	1d	1f
.	.	4B-y	.	.
.	.	4B-y	.	.
.	.	8AL	.	.
.	.	8B-yJ	.	.
=11	=11	=11	=11	=11
1C	1G	1c	1e	2e
.	.	.	.	2.cc
2r	1A	2.F	1r	.
.	.	.	.	4b-y
[2F	.	.	.	[2a
.	.	4G	.	.
=12	=12	=12	=12	=12
4F]	1.A	2.F	0r	4a]
4E	.	.	.	4g
2D	.	.	.	2f
.	.	4G	.	.
2C	.	1A	.	2e
2D	4G	.	.	[2f
.	4F	.	.	.
=13	=13	=13	=13	=13
1BB-y	1G	2.D	1r	4f]
.	.	.	.	4e
.	.	.	.	2.d
.	.	4E	.	.
1AA	1A	2F	1c	.
.	.	.	.	4c
.	.	2E	.	[2c
=14	=14	=14	=14	=14
1D	0r	1F	1d	2c]
.	.	.	.	2Bni
[1C	.	2G	1e	2c
.	.	4C	.	[2g
.	.	4D	.	.
=15	=15	=15	=15	=15
1C]	0r	4E	1.e	4g]
.	.	4F	.	4f
.	.	2.G	.	4e
.	.	.	.	4d
1AA	.	.	.	2c
.	.	4F	.	.
.	.	4F	4d	[2cc
.	.	4E	4c	.
=16	=16	=16	=16	=16
1GG	0r	2G	1d	2cc]
.	.	1G	.	2b-y
[1C	.	.	1e	2.cc
.	.	2G	.	.
.	.	.	.	8b-yL
.	.	.	.	8aJ
=17	=17	=17	=17	=17
2C]	1r	2E	0r	2g
4BB-y	.	2F	.	2a
4AA	.	.	.	.
2GG	1B-y	1G	.	1d
[2G	.	.	.	.
=18	=18	=18	=18	=18
2G]	1A	1D	0r	2r
2F	.	.	.	2d
2G	1G	1r	.	2d
2E	.	.	.	[2c
=19	=19	=19	=19	=19
1D	1F	2r	0r	2c]
.	.	1F	.	2Bni
1C	1G	.	.	[1c
.	.	2E	.	.
=20	=20	=20	=20	=20
2r	2.A	2.F	1r	1c]
1F	.	.	.	.
.	4B-y	4G	.	.
.	2c	2A	1f	1r
2BB-y	[2B-y	2D	.	.
=21	=21	=21	=21	=21
2C	4B-]	2E	1e	0r
.	4A	.	.	.
2AA	1A	2C	.	.
1BB-y	.	2.D	1d	.
.	2G	.	.	.
.	.	4E	.	.
=22	=22	=22	=22	=22
1AA	1A	2F	1c	2r
.	.	2E	.	1a
1r	1B-y	2D	1d	.
.	.	[2d	.	2g
=23	=23	=23	=23	=23
0r	1A	2d]	2.e	2a
.	.	2c	.	2.cc
.	.	.	4f	.
.	1r	2e-X	2g	.
.	.	.	.	4b-y
.	.	[2d	[2f	[2b-y
=24	=24	=24	=24	=24
0r	0r	2d]	4f]	4b-]
.	.	.	4e	4a
.	.	2c	1e	1a
.	.	1B-y	.	.
.	.	.	2d	2g
=25	=25	=25	=25	=25
1r	0r	0A	1e	1.a
1D	.	.	1f	.
.	.	.	.	4g
.	.	.	.	4f
=26	=26	=26	=26	=26
1C	0r	1r	1e	2g
.	.	.	.	2a
2BB-y	.	1B-y	1r	2d
[2D	.	.	.	[2f
=27	=27	=27	=27	=27
4D]	0r	1A	0r	4f]
4C	.	.	.	4e
1F	.	.	.	2c
.	.	1G	.	2d
2E	.	.	.	[2c
=28	=28	=28	=28	=28
4F	0r	1A	0r	2c]
4E	.	.	.	.
4D	.	.	.	1f
4C	.	.	.	.
2BB-y	.	1G	.	.
2C	.	.	.	2e
=29	=29	=29	=29	=29
2AA	0r	2F	0r	1f
1BB-y	.	1D	.	.
.	.	.	.	2r
2AA	.	2C	.	2f
=30	=30	=30	=30	=30
2.BB-y	0B-y	2D	0r	2f
.	.	1F	.	2d
4AA	.	.	.	.
1GG	.	.	.	1g
.	.	2E	.	.
=31	=31	=31	=31	=31
2FF	1A	1F	0r	2.c
1F	.	.	.	.
.	.	.	.	4d
.	1G	1C	.	4e
.	.	.	.	4f
2E	.	.	.	[2g
=32	=32	=32	=32	=32
1F	1A	1c	0r	4g]
.	.	.	.	4f
.	.	.	.	1f
1C	1G	2.c	.	.
.	.	.	.	2e
.	.	4B-y	.	.
=33	=33	=33	=33	=33
0r	1F	4A	0f	2d
.	.	4G	.	.
.	.	1A	.	1c
.	1D	.	.	.
.	.	4G	.	2Bni
.	.	4F	.	.
=34	=34	=34	=34	=34
2r	1C	2G	1e	1c
2AA	.	2A	.	.
2BB-y	2D	2F	1d	1r
2BB-y	[2F	[2B-y	.	.
=35	=35	=35	=35	=35
1C	2F]	2B-]	1e	0r
.	2E	2A	.	.
4BB-y	[1F	2B-y	1d	.
4C	.	.	.	.
4D	.	[2A	.	.
4E	.	.	.	.
=36	=36	=36	=36	=36
2F	0F]	4A]	1c	1r
.	.	4G	.	.
2.FF	.	4A	.	.
.	.	4B-y	.	.
.	.	2c	1A	2r
4GG	.	.	.	.
2AA	.	2C	.	[2f
=37	=37	=37	=37	=37
2BB-y	2r	2D	1G	2f]
2C	2c	2E	.	2e
1FF	2c	1C	2A	1f
.	2A	.	[2c	.
=38	=38	=38	=38	=38
1GG	2B-y	2.G	2c]	2d
.	1G	.	2B-y	2d
.	.	4F	.	.
2C	.	4E	[1c	2e
.	.	4D	.	.
2FF	[2A	[2C	.	2f
=39	=39	=39	=39	=39
2.C	2A]	4C]	0c]	4g
.	.	4D	.	4f
.	1G	1E	.	4e
4BB-y	.	.	.	4d
1AA	.	.	.	2c
.	2F#i	4D	.	[2cc
.	.	4C	.	.
=40	=40	=40	=40	=40
1GG	0G	1D	2r	2cc]
.	.	.	2g	2b-y
1C	.	2C	2g	2.cc
.	.	[2c	2e	.
.	.	.	.	4b-y
=41	=41	=41	=41	=41
1F	0r	2c]	2f	1a
.	.	2A	1d	.
2G	.	2B-y	.	1g
2C	.	[2G	[2e	.
=42	=42	=42	=42	=42
2.G	0r	4G]	2e]	2r
.	.	4A	.	.
.	.	1B-y	1d	1g
4F	.	.	.	.
1E	.	.	.	.
.	.	4A	2c#i	2e
.	.	4G	.	.
=43	=43	=43	=43	=43
2D	0r	2A	0d	2f
2G	.	2B-y	.	1g
2G	.	2B-y	.	.
2F	.	2A	.	[2a
=44	=44	=44	=44	=44
2.G	0r	2.B-y	0r	4a]
.	.	.	.	4g
.	.	.	.	1g
8FL	.	8AL	.	.
8EJ	.	8GJ	.	.
4D	.	1A	.	.
4C	.	.	.	.
2D	.	.	.	2f#i
=45	=45	=45	=45	=45
2E	0r	2G	0r	2.g
2C	.	2.c	.	.
.	.	.	.	8fL
.	.	.	.	8eJ
1G	.	.	.	2d
.	.	4B-y	.	.
.	.	4B-y	.	[2g
.	.	8AL	.	.
.	.	8B-yJ	.	.
=46	=46	=46	=46	=46
1r	0r	2c	0r	4g]
.	.	.	.	4c
.	.	4B-y	.	1f
.	.	4A	.	.
1C	.	2G	.	.
.	.	[2c	.	2e
=47	=47	=47	=47	=47
1D	0r	4c]	0r	2.f
.	.	4F	.	.
.	.	1B-y	.	.
.	.	.	.	8eL
.	.	.	.	8dJ
1F	.	.	.	2c
.	.	2A	.	[2d
=48	=48	=48	=48	=48
1G	0r	2B-y	0r	2d]
.	.	2.d	.	4c
.	.	.	.	4B-y
2.F	.	.	.	2.A
.	.	4c	.	.
.	.	[2c	.	.
8EL	.	.	.	4B-y
8DJ	.	.	.	.
=49	=49	=49	=49	=49
2C	1r	2c]	0r	1c
1F	.	4B-y	.	.
.	.	4A	.	.
.	1C	1G	.	2r
2E	.	.	.	2c
=50	=50	=50	=50	=50
2F	1D	1F	0r	2A
2.BB-y	.	.	.	2.d
.	1F	2r	.	.
4C	.	.	.	4c
2D	.	2F	.	4A
.	.	.	.	4B-y
=51	=51	=51	=51	=51
2C	1G	2E	0r	2c
2.BB-y	.	2.D	.	1d
.	2.F	.	.	.
4AA	.	4C	.	.
4FF	.	[2c	.	2f
4GG	8EL	.	.	.
.	8DJ	.	.	.
=52	=52	=52	=52	=52
2AA	2C	2c]	1r	2e
2BB-y	1F	2F	.	2d
1GG	.	1B-y	1G	1g
.	2E	.	.	.
=53	=53	=53	=53	=53
1r	1F	2A	1A	1c
.	.	1F	.	.
1C	2.G	.	1c	1r
.	.	2E	.	.
.	4A	.	.	.
=54	=54	=54	=54	=54
4BB-y	2B-y	2.F	1d	1f
4C	.	.	.	.
4D	2.A	.	.	.
4E	.	4G	.	.
2F	.	4A	2.c	2.f
.	4G	4B-y	.	.
2FF	[2F	[2c	.	.
.	.	.	8B-yL	4f
.	.	.	8AJ	.
=55	=55	=55	=55	=55
1C	2F]	2c]	2G	2.g
.	2E	2c	1c	.
.	.	.	.	4f
1D	1F	2A	.	4d
.	.	.	.	4e
.	.	2F	2Bni	[2f
=56	=56	=56	=56	=56
1C	0r	2G	1c	2f]
.	.	1A	.	2e
2BB-y	.	.	2.d	2f
2BB-y	.	2G	.	2g
.	.	.	4e	.
=57	=57	=57	=57	=57
2AA	1r	2.A	2f	4c
.	.	.	.	4d
2.C	.	.	2.e	4e
.	.	4G	.	4f
.	1C	2E	.	2g
4BB-y	.	.	4d	.
2AA	.	2F	[2c	2a
=58	=58	=58	=58	=58
1GG	1D	1G	2c]	2d
.	.	.	2B-y	2g
1FF	1F	1r	1c	2a
.	.	.	.	[2f
=59	=59	=59	=59	=59
1C	1G	2r	0r	4f]
.	.	.	.	4e
.	.	2G	.	4e
.	.	.	.	8dL
.	.	.	.	8eJ
2r	2.F	1A	.	2f
2FF	.	.	.	[2cc
.	8EL	.	.	.
.	8DJ	.	.	.
=60	=60	=60	=60	=60
1AA	2C	1c	1r	4cc]
.	.	.	.	4b-y
.	1F	.	.	1a
1C	.	2r	1G	.
.	2E	[2c	.	2g
=61	=61	=61	=61	=61
2r	1F	2c]	1A	2f
2D	.	1F	.	4e
.	.	.	.	4d
2C	2.G	.	1c	1e
2C	.	2E	.	.
.	4A	.	.	.
=62	=62	=62	=62	=62
4BB-y	2B-y	2.F	1d	2d
4C	.	.	.	.
4D	2.A	.	.	2f
4E	.	4G	.	.
2F	.	4A	2.c	2f
.	4G	4B-y	.	.
2FF	[2F	[2c	.	2f
.	.	.	8B-yL	.
.	.	.	8AJ	.
=63	=63	=63	=63	=63
1C	2F]	2c]	2G	2.g
.	2E	2c	1c	.
.	.	.	.	4f
1D	1F	2A	.	4d
.	.	.	.	4e
.	.	4G	2Bni	[2f
.	.	4F	.	.
=64	=64	=64	=64	=64
2C	0r	2G	1c	2f]
2C	.	1A	.	2e
1BB-y	.	.	2.d	2f
.	.	2G	.	2g
.	.	.	4e	.
=65	=65	=65	=65	=65
2AA	2r	2A	2f	0c
2.C	2G	2G	2.e	.
.	2G	2E	.	.
4BB-y	.	.	4d	.
2AA	2A	2E	[2c	.
=66	=66	=66	=66	=66
1GG	2B-y	1G	2c]	2.d
.	2G	.	2B-y	.
.	.	.	.	4e
1FF	2.A	2C	[1cl	4f
.	.	.	.	4g
.	.	2F	.	[2a
.	4B-y	.	.	.
=67	=67	=67	=67	=67
2.AA	2c	2E	0c_	4a]
.	.	.	.	4g
.	2A	2.c	.	1f
4BB-y	.	.	.	.
1C	1G	.	.	.
.	.	4B-y	.	.
.	.	2G	.	2e
=68	=68	=68	=68	=68
00FFl	00Fl	00Al	00c]	00fl
==	==	==	==	==
*-	*-	*-	*-	*-
!!!system-decoration: [*]
!!!RDF**kern: i = editorial accidental
!!!RDF**kern: l = terminal long
!!!ENC: Benjamin Ory
!!!END: 2020/12/17
!!!EED: Benjamin Ory
!!!EEV: 2022/01/12
!!!YEC: Copyright 2022 Benjamin Ory, All Rights Reserved
!!!ONB: Translated from MusicXML on 2022/01/12
